resources/svg/octagon-duotone.svg

<svg xmlns="http://www.w3.org/2000/svg" viewBox="0 0 256 256" fill="currentColor"><g opacity="0.2"><path d="M164.45079,32H91.54921a8,8,0,0,0-5.65686,2.34315l-51.5492,51.5492A8,8,0,0,0,32,91.54921v72.90158a8,8,0,0,0,2.34315,5.65686l51.5492,51.5492A8,8,0,0,0,91.54921,224h72.90158a8,8,0,0,0,5.65686-2.34315l51.5492-51.5492A8,8,0,0,0,224,164.45079V91.54921a8,8,0,0,0-2.34315-5.65686l-51.5492-51.5492A8,8,0,0,0,164.45079,32Z"/></g><path d="M164.45068,232H91.54932a15.89479,15.89479,0,0,1-11.31421-4.68677L28.68652,175.7644A15.89362,15.89362,0,0,1,24,164.45068V91.54932a15.89479,15.89479,0,0,1,4.68677-11.31421L80.2356,28.68652A15.89362,15.89362,0,0,1,91.54932,24h72.90136a15.89479,15.89479,0,0,1,11.31421,4.68677L227.31348,80.2356A15.89362,15.89362,0,0,1,232,91.54932v72.90136a15.89479,15.89479,0,0,1-4.68677,11.31421L175.7644,227.31348A15.89362,15.89362,0,0,1,164.45068,232ZM91.54932,40,40.00024,91.54907,40,164.45068l51.54907,51.54908L164.45068,216l51.54908-51.54907L216,91.54932,164.45068,40Z"/></svg>

<svg xmlns="http://www.w3.org/2000/svg" viewBox="0 0 256 256" fill="currentColor"><g opacity="0.2"><path d="M164.5,32h-73a7.9,7.9,0,0,0-5.6,2.3L34.3,85.9A7.9,7.9,0,0,0,32,91.5v73a7.9,7.9,0,0,0,2.3,5.6l51.6,51.6a7.9,7.9,0,0,0,5.6,2.3h73a7.9,7.9,0,0,0,5.6-2.3l51.6-51.6a7.9,7.9,0,0,0,2.3-5.6v-73a7.9,7.9,0,0,0-2.3-5.6L170.1,34.3A7.9,7.9,0,0,0,164.5,32Z"/></g><path d="M164.5,232h-73a16.2,16.2,0,0,1-11.3-4.7L28.7,175.8A16.2,16.2,0,0,1,24,164.5v-73a16.2,16.2,0,0,1,4.7-11.3L80.2,28.7A16.2,16.2,0,0,1,91.5,24h73a16.2,16.2,0,0,1,11.3,4.7l51.5,51.5A16.2,16.2,0,0,1,232,91.5v73a16.2,16.2,0,0,1-4.7,11.3l-51.5,51.5A16.2,16.2,0,0,1,164.5,232ZM91.5,40,40,91.5v73L91.5,216h73L216,164.5v-73L164.5,40Z"/></svg>
